src/static/no-camera.svg

<svg
  width="24"
  height="24"
  viewBox="0 0 24 24"
  fill="none"
  xmlns="http://www.w3.org/2000/svg"
>
  <path
    d="M2.53033 1.46967C2.23744 1.17678 1.76256 1.17678 1.46967 1.46967C1.17678 1.76256 1.17678 2.23744 1.46967 2.53033L2.53033 1.46967ZM21.4697 22.5303C21.7626 22.8232 22.2374 22.8232 22.5303 22.5303C22.8232 22.2374 22.8232 21.7626 22.5303 21.4697L21.4697 22.5303ZM15.5937 3.8906L14.9697 4.30662L15.5937 3.8906ZM17 6L16.376 6.41603C16.5151 6.62467 16.7492 6.75 17 6.75V6ZM8.40627 3.8906L9.0303 4.30662L9.0303 4.30662L8.40627 3.8906ZM6 6.75C6.41421 6.75 6.75 6.41421 6.75 6C6.75 5.58579 6.41421 5.25 6 5.25V6.75ZM7.57596 3.78397C7.3462 4.12862 7.43933 4.59427 7.78397 4.82404C8.12862 5.0538 8.59427 4.96067 8.82404 4.61603L7.57596 3.78397ZM21.1677 17.7308C21.075 18.1346 21.3271 18.537 21.7308 18.6296C22.1346 18.7223 22.537 18.4702 22.6296 18.0665L21.1677 17.7308ZM20.6574 20.9376C21.0006 20.7056 21.0907 20.2393 20.8587 19.8962C20.6268 19.553 20.1605 19.4629 19.8174 19.6949L20.6574 20.9376ZM1.46967 2.53033L21.4697 22.5303L22.5303 21.4697L2.53033 1.46967L1.46967 2.53033ZM12 15.75C10.7574 15.75 9.75 14.7426 9.75 13.5H8.25C8.25 15.5711 9.92893 17.25 12 17.25V15.75ZM14.0512 14.4265C13.6972 15.2085 12.9111 15.75 12 15.75V17.25C13.5215 17.25 14.8298 16.3439 15.4177 15.0451L14.0512 14.4265ZM9.75 13.5C9.75 12.6681 10.2011 11.9407 10.8755 11.5506L10.1245 10.2521C9.00553 10.8994 8.25 12.111 8.25 13.5H9.75ZM10.0704 3.75H13.9296V2.25H10.0704V3.75ZM14.9697 4.30662L16.376 6.41603L17.624 5.58397L16.2178 3.47457L14.9697 4.30662ZM13.9296 3.75C14.3476 3.75 14.7379 3.95888 14.9697 4.30662L16.2178 3.47457C15.7077 2.70953 14.8491 2.25 13.9296 2.25V3.75ZM9.0303 4.30662C9.26214 3.95888 9.65243 3.75 10.0704 3.75V2.25C9.1509 2.25 8.29226 2.70953 7.78223 3.47457L9.0303 4.30662ZM21.25 10V17H22.75V10H21.25ZM18 20.25H6V21.75H18V20.25ZM2.75 17V10H1.25V17H2.75ZM6 20.25C4.20507 20.25 2.75 18.7949 2.75 17H1.25C1.25 19.6234 3.37665 21.75 6 21.75V20.25ZM18 6.75C19.7949 6.75 21.25 8.20507 21.25 10H22.75C22.75 7.37665 20.6234 5.25 18 5.25V6.75ZM6 5.25C3.37665 5.25 1.25 7.37665 1.25 10H2.75C2.75 8.20507 4.20507 6.75 6 6.75V5.25ZM18 5.25H17V6.75H18V5.25ZM8.82404 4.61603L9.0303 4.30662L7.78223 3.47457L7.57596 3.78397L8.82404 4.61603ZM21.25 17C21.25 17.2521 21.2214 17.4966 21.1677 17.7308L22.6296 18.0665C22.7085 17.7229 22.75 17.3659 22.75 17H21.25ZM19.8174 19.6949C19.2989 20.0454 18.6745 20.25 18 20.25V21.75C18.9832 21.75 19.8987 21.4505 20.6574 20.9376L19.8174 19.6949Z"
    fill="white"
  />
  <circle
    cx="12"
    cy="6"
    r="1"
    fill="white"
  />
</svg>

<svg xmlns="http://www.w3.org/2000/svg" width="24" height="24" fill="none"><path fill="#fff" d="M2.53 1.47a.75.75 0 0 0-1.06 1.06l1.06-1.06Zm18.94 21.06a.75.75 0 1 0 1.06-1.06l-1.06 1.06ZM15.594 3.89l-.624.417.624-.416ZM17 6l-.624.416A.75.75 0 0 0 17 6.75V6ZM8.406 3.89l.624.417-.624-.416ZM6 6.75a.75.75 0 0 0 0-1.5v1.5Zm1.576-2.966a.75.75 0 0 0 1.248.832l-1.248-.832Zm13.592 13.947a.75.75 0 1 0 1.462.335l-1.462-.335Zm-.51 3.207a.75.75 0 0 0-.84-1.243l.84 1.243ZM1.47 2.53l20 20 1.06-1.06-20-20-1.06 1.06ZM12 15.75a2.25 2.25 0 0 1-2.25-2.25h-1.5A3.75 3.75 0 0 0 12 17.25v-1.5Zm2.051-1.323A2.25 2.25 0 0 1 12 15.75v1.5a3.75 3.75 0 0 0 3.418-2.205l-1.367-.618ZM9.75 13.5c0-.832.451-1.56 1.126-1.95l-.752-1.298A3.749 3.749 0 0 0 8.25 13.5h1.5Zm.32-9.75h3.86v-1.5h-3.86v1.5Zm4.9.557 1.406 2.109 1.248-.832-1.406-2.11-1.248.833Zm-1.04-.557c.418 0 .808.209 1.04.557l1.248-.832A2.75 2.75 0 0 0 13.93 2.25v1.5Zm-4.9.557a1.25 1.25 0 0 1 1.04-.557v-1.5c-.92 0-1.778.46-2.288 1.225l1.248.832ZM21.25 10v7h1.5v-7h-1.5ZM18 20.25H6v1.5h12v-1.5ZM2.75 17v-7h-1.5v7h1.5ZM6 20.25A3.25 3.25 0 0 1 2.75 17h-1.5A4.75 4.75 0 0 0 6 21.75v-1.5Zm12-13.5A3.25 3.25 0 0 1 21.25 10h1.5A4.75 4.75 0 0 0 18 5.25v1.5ZM6 5.25A4.75 4.75 0 0 0 1.25 10h1.5A3.25 3.25 0 0 1 6 6.75v-1.5Zm12 0h-1v1.5h1v-1.5Zm-9.176-.634.206-.31-1.248-.831-.206.309 1.248.832ZM21.25 17c0 .252-.029.497-.082.73l1.462.337c.079-.344.12-.701.12-1.067h-1.5Zm-1.433 2.695A3.231 3.231 0 0 1 18 20.25v1.5c.983 0 1.899-.3 2.657-.812l-.84-1.243Z"/><circle cx="12" cy="6" r="1" fill="#fff"/></svg>
